src/basic/800/u21bb-skip-ahead.svg

<svg width="10" height="16" viewBox="0 0 10 16" fill="none" xmlns="http://www.w3.org/2000/svg">
<path fill-rule="evenodd" clip-rule="evenodd" d="M5.29289,4.00001l-1.64644,-1.64645l0.7071,-0.70711l2.5,2.5l0.35356,0.35356l-0.35356,0.35355l-2.5,2.5l-0.7071,-0.70711l1.64644,-1.64644h-0.29289c-2.20914,0 -4,1.79086 -4,4c0,2.20909 1.79086,3.99999 4,3.99999c2.20914,0 4,-1.7909 4,-3.99999h1c0,2.76139 -2.23858,4.99999 -5,4.99999c-2.76142,0 -5,-2.2386 -5,-4.99999c0,-2.76143 2.23858,-5 5,-5z" fill="black"/>
</svg>

<svg width="10" height="16" viewBox="0 0 10 16" fill="none" xmlns="http://www.w3.org/2000/svg">
<path fill-rule="evenodd" clip-rule="evenodd" d="M5.29289 4.00001L3.64645 2.35356L4.35355 1.64645L6.85355 4.14645L7.20711 4.50001L6.85355 4.85356L4.35355 7.35356L3.64645 6.64645L5.29289 5.00001H5C2.79086 5.00001 1 6.79087 1 9.00001C1 11.2091 2.79086 13 5 13C7.20914 13 9 11.2091 9 9.00001H10C10 11.7614 7.76142 14 5 14C2.23858 14 0 11.7614 0 9.00001C0 6.23858 2.23858 4.00001 5 4.00001H5.29289Z" fill="black"/>
</svg>
